media/img/firefox/mobile/icon-send-tabs.svg

<?xml version="1.0" encoding="UTF-8"?>
<svg width="27px" height="27px" viewBox="0 0 27 27" version="1.1" xmlns="http://www.w3.org/2000/svg" xmlns:xlink="http://www.w3.org/1999/xlink">
    <!-- Generator: Sketch 47.1 (45422) - http://www.bohemiancoding.com/sketch -->
    <title>Combined Shape</title>
    <desc>Created with Sketch.</desc>
    <defs>
        <linearGradient x1="100%" y1="0%" x2="0%" y2="100%" id="linearGradient-1">
            <stop stop-color="#05C8E5" offset="0%"></stop>
            <stop stop-color="#008BFF" offset="100%"></stop>
        </linearGradient>
    </defs>
    <g id="Mobile-Wireframes" stroke="none" stroke-width="1" fill="none" fill-rule="evenodd">
        <g id="FF-57-Mobile-Landing" transform="translate(-1047.000000, -2172.000000)" fill-rule="nonzero" fill="url(#linearGradient-1)">
            <g id="App-Features" transform="translate(-1.000000, 1588.000000)">
                <path d="M1074.50674,591.224024 L1074.50674,591.224024 C1075.16508,591.883487 1075.16432,592.951723 1074.50506,593.610255 L1067.75476,600.360556 C1067.33105,600.799252 1066.7036,600.975192 1066.11358,600.820753 C1065.52355,600.666314 1065.06277,600.20553 1064.90833,599.615504 C1064.75389,599.025478 1064.92983,598.398031 1065.36852,597.974324 L1069.23813,594.104714 L1066.56333,594.104714 C1061.90553,594.110294 1058.13103,597.884793 1058.12545,602.542591 C1058.12545,603.474613 1057.3699,604.230166 1056.43788,604.230166 C1055.50585,604.230166 1054.7503,603.474613 1054.7503,602.542591 C1054.75774,596.02152 1060.04226,590.737004 1066.56333,590.729564 L1069.23813,590.729564 L1065.37021,586.859954 C1064.73067,586.197785 1064.73981,585.145235 1065.39077,584.49428 C1066.04172,583.843325 1067.09427,583.834179 1067.75644,584.473723 L1074.50674,591.224024 Z M1069.93848,602.542591 C1070.8705,602.542591 1071.62605,603.298144 1071.62605,604.230166 L1071.62605,605.917741 C1071.62605,608.713807 1069.35939,610.980467 1066.56333,610.980467 L1053.06273,610.980467 C1050.26666,610.980467 1048,608.713807 1048,605.917741 L1048,594.104714 C1048,591.308648 1050.26666,589.041989 1053.06273,589.041989 L1054.7503,589.041989 C1055.68232,589.041989 1056.43788,589.797542 1056.43788,590.729564 C1056.43788,591.661586 1055.68232,592.417139 1054.7503,592.417139 L1053.06273,592.417139 C1052.1307,592.417139 1051.37515,593.172692 1051.37515,594.104714 L1051.37515,605.917741 C1051.37515,606.849763 1052.1307,607.605316 1053.06273,607.605316 L1066.56333,607.605316 C1067.49535,607.605316 1068.2509,606.849763 1068.2509,605.917741 L1068.2509,604.230166 C1068.2509,603.298144 1069.00646,602.542591 1069.93848,602.542591 Z" id="Combined-Shape"></path>
            </g>
        </g>
    </g>
</svg>

<svg width="27" height="27" viewBox="0 0 27 27" xmlns="http://www.w3.org/2000/svg">
  <title>
    Combined Shape
  </title>
  <defs>
    <linearGradient x1="100%" y1="0%" x2="0%" y2="100%" id="a">
      <stop stop-color="#05C8E5" offset="0%"/>
      <stop stop-color="#008BFF" offset="100%"/>
    </linearGradient>
  </defs>
  <path d="M1074.507 591.224c.658.66.657 1.728-.002 2.386l-6.75 6.75c-.424.44-1.05.615-1.64.46-.59-.154-1.052-.614-1.207-1.204-.154-.59.022-1.218.46-1.642l3.87-3.87h-2.675c-4.657.006-8.432 3.78-8.438 8.44 0 .93-.755 1.686-1.687 1.686s-1.688-.755-1.688-1.687c.008-6.52 5.292-11.806 11.813-11.813h2.675l-3.868-3.87c-.64-.662-.63-1.715.02-2.366.652-.65 1.704-.66 2.366-.02l6.75 6.75zm-4.57 11.32c.934 0 1.69.754 1.69 1.686v1.688c0 2.796-2.268 5.062-5.064 5.062h-13.5c-2.796 0-5.063-2.266-5.063-5.062v-11.813c0-2.796 2.267-5.063 5.063-5.063h1.687c.932 0 1.688.756 1.688 1.688 0 .932-.756 1.687-1.688 1.687h-1.687c-.932 0-1.688.756-1.688 1.688v11.813c0 .932.756 1.687 1.688 1.687h13.5c.932 0 1.688-.755 1.688-1.687v-1.688c0-.932.758-1.687 1.69-1.687z" transform="translate(-1048 -584)" fill="url(#a)"/>
</svg>
